build/images/fb-icons/multiple-choice.svg

<svg xmlns="http://www.w3.org/2000/svg" preserveAspectRatio="xMidYMid" width="15" height="16" viewBox="0 0 15 16"><defs><style>.cls-1{fill:#606060;fill-rule:evenodd}</style></defs><path d="M7.632 10.769l-.043-.046-.034.038-3.49-3.752L5.542 5.38 7.53 7.625l5.518-6.082 1.477 1.628-6.893 7.598zm-5.744 3.144h10.604V7.879h1.871v8.134H.017V.614h7.636v2.1H1.888v11.199z" class="cls-1"/></svg>

<svg xmlns="http://www.w3.org/2000/svg" xmlns:xlink="http://www.w3.org/1999/xlink" preserveAspectRatio="xMidYMid" width="15" height="16" viewBox="0 0 15 16">
  <defs>
    <style>
      .cls-1 {
        fill: #606060;
        fill-rule: evenodd;
      }
    </style>
  </defs>
  <path d="M7.632,10.769 L7.589,10.723 L7.555,10.761 L4.065,7.009 L5.542,5.380 L7.530,7.625 L13.048,1.543 L14.525,3.171 L7.632,10.769 ZM1.888,13.913 L12.492,13.913 L12.492,7.879 L14.363,7.879 L14.363,16.013 L0.017,16.013 L0.017,0.614 L7.653,0.614 L7.653,2.714 L1.888,2.714 L1.888,13.913 Z" class="cls-1"/>
</svg>
